source/img/play.svg

<svg width="128" height="128" viewBox="0 0 128 128" fill="none" xmlns="http://www.w3.org/2000/svg">
<path d="M57.0668 17.2411C61.3572 14.764 66.6431 14.764 70.9335 17.2411L101.028 34.6161C105.318 37.0931 107.961 41.6709 107.961 46.625V81.375C107.961 86.3291 105.318 90.9069 101.028 93.3839L70.9335 110.759C66.6431 113.236 61.3572 113.236 57.0668 110.759L26.9724 93.3839C22.682 90.9069 20.0391 86.3291 20.0391 81.375V46.625C20.0391 41.6709 22.682 37.0931 26.9724 34.6161L57.0668 17.2411Z" fill="#347DFE"/>
<path d="M55.7169 6.88358C60.8427 3.92423 67.1578 3.92422 72.2836 6.88357L109.323 28.2682C114.449 31.2276 117.606 36.6967 117.606 42.6154V85.3847C117.606 91.3034 114.449 96.7725 109.323 99.7318L72.2836 121.116C67.1578 124.076 60.8427 124.076 55.7169 121.116L18.6776 99.7318C13.5519 96.7725 10.3943 91.3034 10.3943 85.3847V42.6154C10.3943 36.6967 13.5519 31.2276 18.6776 28.2682L55.7169 6.88358Z" stroke="#347DFE"/>
<path d="M52 53.482C52 50.3948 55.3489 48.4713 58.0155 50.0269L76.0462 60.5448C78.6922 62.0883 78.6922 65.9115 76.0462 67.455L58.0155 77.9729C55.3489 79.5285 52 77.605 52 74.5178V53.482Z" fill="#CECFDB"/>
</svg>

<svg width="128" height="128" fill="none" xmlns="http://www.w3.org/2000/svg"><path d="M57.067 17.241a13.866 13.866 0 0 1 13.866 0l30.095 17.375a13.867 13.867 0 0 1 6.933 12.009v34.75c0 4.954-2.643 9.532-6.933 12.009l-30.095 17.375a13.867 13.867 0 0 1-13.866 0L26.972 93.384a13.867 13.867 0 0 1-6.933-12.009v-34.75c0-4.954 2.643-9.532 6.933-12.009l30.095-17.375Z" fill="#347DFE"/><path d="M55.717 6.884a16.567 16.567 0 0 1 16.567 0l37.039 21.384a16.566 16.566 0 0 1 8.283 14.347v42.77a16.566 16.566 0 0 1-8.283 14.347l-37.04 21.384a16.564 16.564 0 0 1-16.566 0l-37.04-21.384a16.567 16.567 0 0 1-8.283-14.347v-42.77a16.567 16.567 0 0 1 8.284-14.347L55.717 6.884Z" stroke="#347DFE"/><path d="M52 53.482c0-3.087 3.349-5.01 6.016-3.455l18.03 10.518c2.646 1.543 2.646 5.367 0 6.91l-18.03 10.518C55.349 79.528 52 77.605 52 74.518V53.482Z" fill="#CECFDB"/></svg>
